img/guarantee/guarantee1.svg

<svg width="31" height="30" viewBox="0 0 31 30" fill="none" xmlns="http://www.w3.org/2000/svg">
<path opacity="0.56" fill-rule="evenodd" clip-rule="evenodd" d="M14.8871 0.55874C14.5389 0.683023 14.466 0.741472 13.4087 1.74294C12.7714 2.34652 12.5766 2.49949 12.4036 2.53192C12.2668 2.5576 11.7875 2.51534 11.0818 2.41537C9.88362 2.24558 9.59227 2.24967 9.15471 2.44257C8.80317 2.59759 8.38167 3.01587 8.23625 3.35407C8.17271 3.50181 8.03172 4.12391 7.92293 4.73646C7.81419 5.34901 7.69926 5.89868 7.66752 5.95792C7.56015 6.15861 7.27567 6.34781 6.33177 6.84625C5.73556 7.16104 5.30441 7.42892 5.1557 7.57683C4.69309 8.03699 4.50372 8.73548 4.6785 9.3369C4.73028 9.51497 4.98881 10.0968 5.25308 10.6298C5.60172 11.3331 5.73351 11.6582 5.73351 11.8149C5.73351 11.9716 5.60172 12.2968 5.25308 13C4.98881 13.5331 4.73028 14.1149 4.6785 14.293C4.50384 14.8941 4.69991 15.6163 5.15876 16.0618C5.29504 16.1941 5.77559 16.49 6.32774 16.7815C6.84338 17.0538 7.28163 17.303 7.30156 17.3353C7.32155 17.3677 5.90369 18.8296 4.15082 20.5841C0.717419 24.0207 0.812132 23.908 1.09156 24.2208C1.2037 24.3463 1.46144 24.4195 3.20136 24.8198C4.29147 25.0705 5.19244 25.2848 5.20357 25.2959C5.21464 25.307 5.42882 26.2083 5.67951 27.2988C6.07966 29.0393 6.1528 29.2971 6.27828 29.4093C6.59258 29.6903 6.44727 29.8149 10.3147 25.948L13.9042 22.3589L14.1929 22.6291C14.6206 23.0293 14.9154 23.1458 15.5001 23.1458C16.0848 23.1458 16.3796 23.0293 16.8072 22.6291L17.096 22.3589L20.6855 25.948C24.5541 29.8161 24.4064 29.6896 24.7235 29.4093C24.8513 29.2963 24.921 29.0514 25.3244 27.2966C25.5754 26.2049 25.7879 25.3046 25.7966 25.2959C25.8053 25.2872 26.7053 25.0746 27.7966 24.8236C29.5509 24.42 29.7957 24.3503 29.9086 24.2224C30.1873 23.9069 30.2839 24.0218 26.8493 20.5841C25.0965 18.8296 23.6786 17.3677 23.6986 17.3353C23.7185 17.303 24.1567 17.0538 24.6723 16.7816C25.2653 16.4684 25.6959 16.2008 25.8445 16.053C26.3071 15.5929 26.4964 14.8944 26.3217 14.293C26.2699 14.1149 26.0113 13.5331 25.7471 13C25.3984 12.2968 25.2666 11.9716 25.2666 11.8149C25.2666 11.6582 25.3984 11.3331 25.7471 10.6298C26.0113 10.0968 26.2699 9.51497 26.3217 9.3369C26.4964 8.73548 26.3071 8.03699 25.8445 7.57683C25.6955 7.42869 25.2636 7.16053 24.6632 6.84352C24.1426 6.5686 23.6314 6.26874 23.5271 6.17718C23.3 5.97769 23.2697 5.878 23.0497 4.6082C22.9558 4.0654 22.827 3.50073 22.7636 3.35333C22.6192 3.01763 22.1972 2.5977 21.8507 2.4449C21.4036 2.24786 21.1461 2.24433 19.8971 2.41815C18.8328 2.56634 18.7148 2.57305 18.5109 2.49716C18.3641 2.44252 17.9856 2.1267 17.4016 1.57163C16.8126 1.01191 16.4256 0.689385 16.2489 0.610998C15.8721 0.44383 15.2732 0.420882 14.8871 0.55874ZM15.8678 1.44439C15.9744 1.48893 16.4277 1.88177 16.8753 2.31738C18.115 3.52397 18.2675 3.57412 19.9497 3.32891C21.1788 3.1497 21.2601 3.14885 21.5472 3.31153C21.8954 3.5088 21.9907 3.75157 22.1981 4.97031C22.4027 6.1719 22.552 6.55735 22.9424 6.89169C23.0583 6.99087 23.5838 7.29879 24.1104 7.57592C24.637 7.85312 25.1162 8.12151 25.1753 8.17234C25.321 8.29788 25.4909 8.6814 25.493 8.88964C25.4939 8.9912 25.2878 9.48543 24.9827 10.1128C24.7012 10.6918 24.4402 11.3117 24.4028 11.4903C24.3019 11.9715 24.396 12.3064 24.9538 13.4506C25.2203 13.9973 25.4535 14.5397 25.4721 14.6558C25.5154 14.9264 25.3425 15.3327 25.1176 15.489C25.0278 15.5514 24.5455 15.8175 24.0459 16.0802C23.0317 16.6134 22.6338 16.9422 22.4704 17.3815C22.4181 17.5221 22.2869 18.1298 22.1788 18.7319C22.0618 19.3834 21.9389 19.9008 21.8752 20.0098C21.7458 20.2315 21.3858 20.4466 21.1421 20.4479C21.0441 20.4484 20.5075 20.3823 19.9497 20.301C18.2623 20.0549 18.1356 20.0961 16.8947 21.2928C16.0446 22.1126 15.8242 22.2665 15.5001 22.2665C15.1787 22.2665 14.9647 22.1169 14.1071 21.2929C12.8603 20.0952 12.7368 20.0551 11.0505 20.301C9.82309 20.4799 9.73979 20.4809 9.45594 20.32C9.10627 20.1219 9.02666 19.9228 8.81691 18.7219C8.60307 17.4976 8.43817 17.0638 8.06534 16.7449C7.94507 16.642 7.44147 16.3433 6.94627 16.0811C6.45102 15.8189 5.97257 15.5531 5.88302 15.4904C5.69541 15.3589 5.50962 14.9881 5.50718 14.7402C5.50622 14.6387 5.71233 14.1444 6.01743 13.5171C6.59962 12.3197 6.69899 11.9748 6.5991 11.4985C6.56265 11.3244 6.30179 10.7046 6.01947 10.121C5.71625 9.49424 5.50678 8.99029 5.50752 8.88964C5.50951 8.64204 5.69524 8.27107 5.88302 8.1398C5.97257 8.07726 6.44971 7.8133 6.94338 7.55332C8.42477 6.77314 8.50676 6.65812 8.81646 4.92703C8.93735 4.25114 9.05994 3.73135 9.12461 3.62064C9.2543 3.39843 9.61413 3.18327 9.85807 3.18196C9.95608 3.18145 10.4927 3.24757 11.0505 3.32891C12.7313 3.57395 12.8793 3.52527 14.1279 2.31647C14.5797 1.87904 15.0286 1.48666 15.1254 1.44451C15.3559 1.34408 15.6277 1.34403 15.8678 1.44439ZM14.409 5.08681C13.7712 5.18616 13.0034 5.445 12.3589 5.77798C10.5521 6.71146 9.26225 8.41585 8.82191 10.4517C8.67694 11.1217 8.67683 12.5071 8.82162 13.1782C9.40671 15.8902 11.4481 17.9121 14.1941 18.4992C14.829 18.6349 16.2471 18.6339 16.8537 18.4973C18.9612 18.0225 20.6515 16.718 21.5998 14.8342C22.078 13.8842 22.2856 12.9705 22.2856 11.8149C22.2856 10.9203 22.2191 10.4771 21.969 9.70452C21.7063 8.89316 21.1799 7.94559 20.7018 7.42341C20.5485 7.25602 20.4688 7.21398 20.3047 7.21398C20.0431 7.21398 19.8723 7.37672 19.8724 7.6258C19.8725 7.76241 19.9589 7.92571 20.2047 8.25391C22.0173 10.6741 21.7317 14.0084 19.5333 16.0901C17.5868 17.9334 14.6858 18.2246 12.3844 16.8078C11.5356 16.2853 10.6709 15.3294 10.2055 14.3994C9.79039 13.5699 9.56167 12.4339 9.61947 11.4886C9.74888 9.3716 10.9988 7.46584 12.8659 6.53844C14.6743 5.64023 16.7618 5.71305 18.5145 6.73543C18.9997 7.01847 19.1118 7.03693 19.3252 6.86903C19.4404 6.77837 19.4748 6.70118 19.4748 6.53327C19.4748 6.25642 19.338 6.13605 18.5854 5.75088C17.298 5.09204 15.8518 4.86205 14.409 5.08681ZM18.0601 9.75587C17.9402 9.87305 17.1083 10.7429 16.2114 11.689L14.5808 13.4091L14.3448 13.1393C13.1596 11.7835 12.7552 11.3578 12.6204 11.324C12.3179 11.248 12.0308 11.5603 12.1112 11.878C12.1612 12.0756 14.2896 14.4779 14.4506 14.5184C14.5236 14.5366 14.636 14.535 14.7002 14.5146C14.7646 14.4942 15.5378 13.7186 16.4186 12.7912C17.2995 11.8637 18.2197 10.8971 18.4636 10.6432C18.9656 10.1206 19.0233 9.93803 18.7676 9.68231C18.5578 9.47243 18.3254 9.49657 18.0601 9.75587ZM7.96483 19.1147C8.04791 19.5993 8.16891 20.1193 8.23381 20.2702C8.38065 20.6116 8.80061 21.0311 9.14948 21.185C9.59602 21.3818 9.85444 21.3855 11.0953 21.2128C12.4645 21.0222 12.5415 21.0327 12.9724 21.4703L13.2548 21.7572L10.0503 24.9632C8.28775 26.7266 6.83634 28.1599 6.82487 28.1485C6.8134 28.1371 6.63062 27.3762 6.41871 26.4578C6.20674 25.5394 6.00516 24.7354 5.97075 24.6711C5.88217 24.5054 5.77122 24.4713 4.05844 24.0829C3.21522 23.8916 2.4771 23.7214 2.41822 23.7046C2.3335 23.6804 2.87895 23.1059 5.02998 20.9538C6.52534 19.4576 7.76348 18.2335 7.78137 18.2335C7.79926 18.2335 7.88182 18.6301 7.96483 19.1147ZM25.9702 20.9538C28.1205 23.1052 28.6666 23.6804 28.5819 23.7045C28.5231 23.7213 27.7849 23.8919 26.9417 24.0834C25.2234 24.4739 25.1175 24.5065 25.0294 24.6711C24.995 24.7354 24.7934 25.5394 24.5815 26.4578C24.3695 27.3762 24.1868 28.1371 24.1753 28.1485C24.1638 28.1599 22.7124 26.7266 20.9499 24.9632L17.7453 21.7572L18.0278 21.4703C18.4587 21.0327 18.5357 21.0222 19.9049 21.2128C21.1457 21.3855 21.4041 21.3818 21.8507 21.185C22.1995 21.0311 22.6195 20.6116 22.7663 20.2702C22.8312 20.1193 22.9523 19.5993 23.0353 19.1147C23.1183 18.6301 23.2009 18.2335 23.2188 18.2335C23.2367 18.2335 24.4748 19.4576 25.9702 20.9538Z" fill="white" stroke="#FFF6F6" stroke-width="0.484383"/>
</svg>

<svg width="31" height="30" fill="none" xmlns="http://www.w3.org/2000/svg"><path opacity=".56" fill-rule="evenodd" clip-rule="evenodd" d="M14.887.559c-.348.124-.421.182-1.478 1.184-.638.604-.832.756-1.005.789-.137.026-.617-.017-1.322-.117-1.198-.17-1.49-.165-1.927.028-.352.155-.773.573-.919.911-.063.148-.204.77-.313 1.382-.109.613-.224 1.163-.255 1.222-.108.2-.392.39-1.336.888-.596.315-1.028.583-1.176.73-.463.461-.652 1.16-.478 1.76.052.179.31.76.575 1.294.349.703.48 1.028.48 1.185 0 .157-.131.482-.48 1.185-.264.533-.523 1.115-.575 1.293-.174.601.022 1.323.48 1.769.137.132.618.428 1.17.72.515.272.954.521.974.553.02.033-1.398 1.495-3.151 3.25C.717 24.02.812 23.907 1.09 24.22c.113.125.37.198 2.11.599 1.09.25 1.991.465 2.003.476.01.011.225.912.476 2.003.4 1.74.473 1.998.598 2.11.315.281.17.406 4.037-3.461l3.59-3.59.288.271c.428.4.722.517 1.307.517s.88-.117 1.307-.517l.289-.27 3.59 3.589c3.868 3.868 3.72 3.742 4.038 3.461.127-.113.197-.358.6-2.112.251-1.092.464-1.992.473-2.001a90.55 90.55 0 012-.472c1.754-.404 1.999-.474 2.112-.602.278-.315.375-.2-3.06-3.638-1.753-1.754-3.17-3.216-3.15-3.249.02-.032.458-.281.973-.553.593-.314 1.024-.581 1.172-.729.463-.46.652-1.159.478-1.76-.052-.178-.31-.76-.575-1.293-.349-.703-.48-1.028-.48-1.185 0-.157.131-.482.48-1.185.264-.533.523-1.115.575-1.293.174-.602-.015-1.3-.477-1.76-.15-.148-.581-.416-1.182-.733-.52-.275-1.032-.575-1.136-.667-.227-.2-.257-.299-.477-1.569-.094-.543-.223-1.107-.286-1.255-.145-.335-.567-.755-.913-.908-.447-.197-.705-.2-1.954-.027-1.064.148-1.182.155-1.386.08-.147-.055-.525-.371-1.11-.926-.588-.56-.975-.883-1.152-.961-.377-.167-.976-.19-1.362-.052zm.98.885c.107.045.56.438 1.008.873 1.24 1.207 1.392 1.257 3.075 1.012 1.229-.18 1.31-.18 1.597-.017.348.197.444.44.651 1.658.205 1.202.354 1.587.744 1.922.116.099.642.407 1.168.684.527.277 1.006.546 1.065.596.146.126.316.51.318.718 0 .101-.205.595-.51 1.223-.282.579-.543 1.199-.58 1.377-.101.482-.007.816.55 1.96.267.547.5 1.09.52 1.206.042.27-.13.677-.355.833-.09.062-.572.329-1.072.591-1.014.533-1.412.862-1.576 1.302-.052.14-.183.748-.291 1.35-.117.651-.24 1.169-.304 1.278-.13.221-.49.437-.733.438-.098 0-.634-.066-1.192-.147-1.688-.246-1.814-.205-3.055.992-.85.82-1.07.974-1.395.974-.321 0-.535-.15-1.393-.974-1.247-1.198-1.37-1.238-3.056-.992-1.228.179-1.311.18-1.595.019-.35-.198-.43-.397-.64-1.598-.213-1.224-.378-1.658-.75-1.977-.12-.103-.625-.402-1.12-.664a20.105 20.105 0 01-1.063-.59c-.188-.132-.373-.503-.376-.75 0-.102.205-.597.51-1.224.583-1.197.682-1.542.582-2.018-.036-.175-.297-.794-.58-1.378-.303-.627-.512-1.13-.511-1.231.002-.248.187-.619.375-.75.09-.063.567-.327 1.06-.587 1.482-.78 1.564-.895 1.873-2.626.121-.676.244-1.196.309-1.306.13-.223.49-.438.733-.439.098 0 .635.066 1.192.147 1.681.245 1.83.196 3.078-1.013.452-.437.9-.83.997-.871.23-.1.503-.101.743 0zM14.41 5.087c-.638.1-1.406.358-2.05.691-1.807.933-3.097 2.638-3.537 4.674-.145.67-.145 2.055 0 2.726.585 2.712 2.626 4.734 5.372 5.321.635.136 2.053.135 2.66-.002 2.107-.474 3.797-1.779 4.746-3.663.478-.95.686-1.864.686-3.02 0-.894-.067-1.337-.317-2.11-.263-.81-.79-1.758-1.267-2.28-.154-.168-.233-.21-.397-.21-.262 0-.433.163-.433.412 0 .136.087.3.333.628a5.877 5.877 0 01-.672 7.836c-1.946 1.843-4.847 2.135-7.149.718-.848-.523-1.713-1.479-2.178-2.409-.416-.83-.644-1.965-.587-2.91.13-2.117 1.38-4.023 3.247-4.95a5.902 5.902 0 015.649.196c.485.283.597.302.81.134.115-.09.15-.168.15-.336 0-.277-.137-.397-.89-.782a6.813 6.813 0 00-4.176-.664zm3.651 4.669c-.12.117-.952.987-1.849 1.933l-1.63 1.72-.236-.27c-1.185-1.355-1.59-1.781-1.725-1.815-.302-.076-.59.236-.509.554.05.198 2.179 2.6 2.34 2.64a.543.543 0 00.25-.003c.064-.02.837-.796 1.718-1.724.88-.927 1.8-1.894 2.045-2.148.502-.522.56-.705.304-.96-.21-.21-.443-.186-.708.073zM7.965 19.115c.083.484.204 1.004.269 1.155.147.342.567.761.915.915.447.197.705.2 1.946.028 1.37-.19 1.446-.18 1.877.257l.283.287-3.205 3.206c-1.762 1.764-3.214 3.197-3.225 3.185a49.87 49.87 0 01-.406-1.69c-.212-.919-.414-1.723-.448-1.787-.089-.166-.2-.2-1.913-.588a132.04 132.04 0 01-1.64-.378c-.085-.025.46-.6 2.612-2.751 1.495-1.496 2.733-2.72 2.751-2.72.018 0 .1.396.184.88zm18.005 1.839c2.15 2.151 2.697 2.726 2.612 2.75-.059.017-.797.188-1.64.38-1.719.39-1.825.422-1.913.587-.034.064-.236.868-.448 1.787a49.98 49.98 0 01-.406 1.69c-.011.012-1.463-1.421-3.225-3.185l-3.205-3.206.283-.287c.43-.437.508-.448 1.877-.257 1.24.172 1.5.169 1.946-.028.349-.154.768-.573.915-.915.065-.15.186-.67.27-1.155.082-.485.165-.881.183-.881.018 0 1.256 1.224 2.751 2.72z" fill="#fff" stroke="#FFF6F6" stroke-width=".484"/></svg>
